X: 1
T: Singing Stream, The
C: Niall Vallely
Z: gian marco
S: https://thesession.org/tunes/2465#setting2465
R: reel
M: 4/4
L: 1/8
K: Dmaj
dA~A2 GAdF|Adef edBc|dA~A2 fged|edef g2fe|
dA~A2 GAdF|Adef ed(3efg|~a3b bagf|1 edef g2fe:|2 edef g2fg||
adde cdef|g2fg egfe|dA~A2 FAdf|fgfd efge|
a2de cdef|~g3f egfe|dA~A2 FAdf|edfe d2fg|
a2de cdef|~g3f egfe|dA~A2 FAdf|fgfd efge|
a3b bagf|edef gefe|dFAd FAdG|AdFA dgfe||

